X:1
T:Mein Hertz ist sehr entzündet
T:Melchior Franck
T:Source : Tricinia nova---Nürnberg---A.Wagenmann---1611. Editor : André Vierendeels (29/03/17). 
T:Notes : Original clefs C1, C1n F4 Editorial accidentals above the staff Text Middle German 
T:Mein Hertz ist sehr entzündet
T:©
T:©
C:Melchior Franck
Z:©
%%score [ 1 2 3 ]
L:1/8
Q:1/4=100
M:4/4
K:F
V:1 treble nm="Soprano" snm="S"
V:2 treble nm="Alto" snm="A"
V:3 bass nm="Bass" snm="B"
V:1
"^1)" z4 c4 | c2 c2 c2 c2 | B4 A4 | z4 d4 | c3 B A2 F2 | E8 | z4 c4 | c2 c2 c2 c2 | B4 A4 | z4 d4 | %10
w: Mein|Hertz ist sehr ent-|zün- det,|gegn|dir in lieb al-|lein,|da|von es denn em-|pfin- det,|solch|
w: Du|bist al- lein die|Son- ne,|so|mich bey lebn er-|hellt,|der|ehrn ein ed- le|Cro- ne,|zu|
 c3 B A2 F2 | E8 |: z2 E3 F G2 | G2 ^F2 G2 A2- | AB c2 c2 =B2 |"^b" c4 B4- | B2 B2 A4 | G4 G4 | %18
w: gros- se schmerz und|pein:|Kombt mir nicht|hülff von dir, kombt|_ mir nicht hülff von|dir, so|_ stirb ich,|glau- be|
w: dern mein Hert- ze|stellt:|Dein zucht und|tu- gent sein, dein|_ zucht und tu- gend|sein gfal-|* len mir|stets al-|
 A8 :| %19
w: mir.|
w: lein.|
V:2
"^2)""^1)" z4 A4 | A2 A2 A2 G2 | G4 ^F4 | z4 B4 | A3 B c2 A2 | G8 | z4 A4 | A2 A2 A2 G2 | G4 ^F4 | %9
w: Mein|Hertz ist sehr ent-|zün- det,|gegn|dir in lieb al-|lein,|da|von es denn em-|pfin- det,|
w: An|schö- ne dei- nes|glei- chen,|hat|bschie- nen nicht die|Sonn,|so|thu auch ich keim|wei- chen,|
 z4 B4 | A3 B c2 A2 | G8 |: z2 c3 c B2 |"^-natural" A2 A2 G2 F2- | FF E2 D2 D2 | C4 D4- | %16
w: solch|gros- se schmerz und|pein:|Kombt mir nicht|hülff von dir, kombt|_ mir nicht hülff von|dir, so|
w: an|treu und glau- ben|schon:|Drumb wern mir|e- nen recht, drumb|_ wern mir e- ben|recht, zu|
 D2 E2 F4 | F4 E4 | F8 :| %19
w: _ stirb ich,|glau- be|mir.|
w: _ sam- men|wanns sein|möcht.|
V:3
"^3)""^1)" F,8 | F,2 F,2 F,2 C,2 | D,4 D,4 | B,,8 | F,2 F,,2 A,,3 B,, | C,8 | F,8 | %7
w: Mein|Hertz ist sehr ent-|zün- det,|gegn|dir in lieb al-|lein,|da|
 F,2 F,2 F,2 C,2 | D,4 D,4 | B,,8 | F,2 F,,2 A,,3 B,, | C,8 |: z2 A,,3 A,, B,,2 | %13
w: von es denn em-|pfin- det,|solch|gros- se schmerz und|pein:|Kombt mir nicht|
 C,2 D,2 G,,2 D,2- | D,D, E,2 F,2 G,2 | C,4 G,,4- | G,,2 G,,2 A,,4 | B,,4 C,4 | F,,8 :| %19
w: hülff von dir, kombt|_ mir nicht hülff von|dir, so|_ stirb ich,|glau- be|mir.|

